symbols/web/running_with_errors/materialsymbolsoutlined/running_with_errors_wght700_20px.svg

<svg xmlns="http://www.w3.org/2000/svg" height="20" width="20"><path d="M10.125 19.042q-1.875 0-3.51-.719-1.636-.719-2.855-1.938-1.218-1.218-1.927-2.875-.708-1.656-.708-3.531 0-1.875.708-3.51.709-1.636 1.938-2.865Q5 2.375 6.646 1.667 8.292.958 10.167.958q2.104 0 3.948.896 1.843.896 3.114 2.521l-7.062 7.083V3.667q-2.605 0-4.469 1.854-1.865 1.854-1.865 4.458t1.855 4.479q1.854 1.875 4.479 1.875 1.291 0 2.437-.5t2.042-1.395v3.437q-1.021.583-2.177.875-1.157.292-2.344.292Zm6.292-4.104V8.292h2.375v6.646Zm1.187 3.854q-.521 0-.906-.386-.386-.385-.386-.906 0-.542.386-.917.385-.375.906-.375.542 0 .917.375t.375.917q0 .521-.375.906-.375.386-.917.386Z"/></svg>

<svg xmlns="http://www.w3.org/2000/svg" height="20" width="20"><path d="M10.125 19.042Q8.25 19.042 6.615 18.323Q4.979 17.604 3.76 16.385Q2.542 15.167 1.833 13.51Q1.125 11.854 1.125 9.979Q1.125 8.104 1.833 6.469Q2.542 4.833 3.771 3.604Q5 2.375 6.646 1.667Q8.292 0.958 10.167 0.958Q12.271 0.958 14.115 1.854Q15.958 2.75 17.229 4.375L10.167 11.458V3.667Q7.562 3.667 5.698 5.521Q3.833 7.375 3.833 9.979Q3.833 12.583 5.688 14.458Q7.542 16.333 10.167 16.333Q11.458 16.333 12.604 15.833Q13.75 15.333 14.646 14.438V17.875Q13.625 18.458 12.469 18.75Q11.312 19.042 10.125 19.042ZM16.417 14.938V8.292H18.792V14.938ZM17.604 18.792Q17.083 18.792 16.698 18.406Q16.312 18.021 16.312 17.5Q16.312 16.958 16.698 16.583Q17.083 16.208 17.604 16.208Q18.146 16.208 18.521 16.583Q18.896 16.958 18.896 17.5Q18.896 18.021 18.521 18.406Q18.146 18.792 17.604 18.792Z"/></svg>
